X: 21004
T: O'ER THE HILLS AND FAR AWA'
O: Scottish air.
Q: "Moderate.
%R: air, march
B: W. Hamilton "Universal Tune-Book" Vol. 2 Glasgow 1846 p.100 #4
S: http://s3-eu-west-1.amazonaws.com/itma.dl.printmaterial/book_pdfs/hamiltonvol2web.pdf
Z: 2016 John Chambers <jc:trillian.mit.edu>
M: C
L: 1/8
K: D
% - - - - - - - - - - - - - - - - - - - - - - - - -
[|\
d3e (de)(fe) | d2B2 B2(AB) | d3e (de)(fd) | g2e2 e2f2 |\
d3e (de)(fe) | d2B2 B3d | A3B (AB)(de) | f2e2 e2 |]
(fg) |\
a3b (af)(ef) | d2B2 B2(fg) | a3b (ag)(ed) |f2e2 e2(fg) |\
a3b (af)(ef) | d2B2 g3B | A3B (AB)(de) | f2e2 e2z2 |]
% - - - - - - - - - - - - - - - - - - - - - - - - -

%%sep 1 1 500
%%sep 1 1 500

